X: 2
T: Whitehaven Volunteers, The
Z: ceolachan
S: https://thesession.org/tunes/6333#setting29851
R: barndance
M: 4/4
L: 1/8
K: Gmaj
|: dc |B2 B2 BcBA | G2 G2 G2 GD | G2 B2 d2 B2 | edcB A2 dc |
B2 cB AcBA | G2 GF G2 GD | E2 c2 A2 F2 | G2 G2 G2 :|
|: dc |B2 d2 d2 ef | g2 d2 d2 dc | B2 d2 d2 B2 | A^GAB A2 dc |
B2 d2 d2 f2 | gagf d2 g2 | B2 D2 BAGF | G2 G2 G2 :|
